X: 1
T:Madame Boneparte
M:4/4
L:1/8
C:Trad
R:Reel
K:A
ed |c2cB cecA|d2de dfdB|Aceg agaf|e2ef edcB|c2cB cecA|dcde fgaf|ecAc dBG
B|A2 A2 A2 :|
cB |Aceg agaf|e2ef edcB|Aceg agaf|e2ef edcB|ceAe ceAe|dfBf dfBf|ceAe ceA
e|GBEB GBEB|
   |ceAe ceAe|dcde fgaf|ecAc dBGB|A2 A2 A2 :|
